proprietary/assets/icons/geld-en-financien/verhuurderheffing.svg

<svg enable-background="new 0 0 64 64" viewBox="0 0 64 64" xmlns="http://www.w3.org/2000/svg"><path d="m0 0h64v64h-64z" fill="none"/><path d="m17 29.274v-1.357c0-.956.401-1.877 1.101-2.528l9.789-9.102-5.889-5.452c-.142-.131-.322-.197-.501-.197-.18 0-.36.065-.501.197l-17.571 16.267c-.273.253-.428.608-.428.98v1.25c0 .369.299.668.667.668h2.333v1.895 13.105h12.75 2.25v-11.924-1.076h-1.274c-1.503 0-2.726-1.223-2.726-2.726z"/><path d="m51 35c1.205 0 2.586.015 4 .06v-1.984-3.076h3.274c.401 0 .726-.325.726-.726v-1.357c0-.403-.168-.788-.463-1.063l-18.995-17.662c-.153-.142-.348-.213-.542-.213s-.389.071-.542.213l-18.995 17.662c-.295.274-.463.659-.463 1.063v1.357c0 .401.325.726.726.726h3.274v3.076 13.924h12.06c.075-2.35.233-4.79.546-6.666.403-2.424 2.302-4.324 4.727-4.728 3.005-.501 7.459-.606 10.667-.606z"/><path d="m55.794 51.93c-.847 0-1.025.976-1.025 1.795 0 1.633.508 1.853 1.005 1.853.706 0 1.063-.552 1.063-1.641.001-1.799-.595-2.007-1.043-2.007z"/><path d="m46.225 46.307c-.863 0-1.044.976-1.044 1.795 0 1.632.518 1.853 1.024 1.853.863 0 1.044-.892 1.044-1.641.001-1.799-.584-2.007-1.024-2.007z"/><path d="m63.435 40.826c-.195-1.173-1.087-2.065-2.261-2.261-3.391-.565-9.044-.565-10.174-.565s-6.783 0-10.174.565c-1.173.196-2.065 1.088-2.26 2.261-.566 3.391-.566 9.044-.566 10.174s0 6.783.565 10.174c.195 1.173 1.087 2.065 2.26 2.261 3.392.565 9.045.565 10.175.565s6.783 0 10.174-.565c1.174-.196 2.066-1.088 2.261-2.261.565-3.391.565-9.044.565-10.174 0-3.393 0-6.783-.565-10.174zm-20.576 7.449c0-2.896 1.844-3.924 3.423-3.924 2.09 0 3.289 1.374 3.289 3.77 0 2.617-1.785 3.809-3.443 3.809-1.491 0-3.269-.634-3.269-3.655zm6.434 9.727-1.839-.727 5.232-13.277 1.839.727zm6.405-.449c-1.491 0-3.269-.634-3.269-3.655 0-2.896 1.844-3.924 3.423-3.924 2.09 0 3.289 1.374 3.289 3.77 0 2.631-1.729 3.809-3.443 3.809z"/></svg>

<?xml version="1.0" encoding="utf-8"?>
<!-- Generator: Adobe Illustrator 25.2.0, SVG Export Plug-In . SVG Version: 6.00 Build 0)  -->
<svg version="1.1" xmlns="http://www.w3.org/2000/svg" xmlns:xlink="http://www.w3.org/1999/xlink" x="0px" y="0px"
	 viewBox="0 0 64 64" style="enable-background:new 0 0 64 64;" xml:space="preserve">
<style type="text/css">
	.st0{fill:none;}
	.st1{fill:#FFFFFF;}
	.st2{fill:#B3B3B3;}
</style>
<g id="Box">
	<rect class="st0" width="64" height="64"/>
</g>
<g id="Icon">
	<g>
		<path d="M17,29.274v-1.357c0-0.956,0.401-1.877,1.101-2.528l9.789-9.102l-5.889-5.452c-0.142-0.131-0.322-0.197-0.501-0.197
			c-0.18,0-0.36,0.065-0.501,0.197L3.428,27.102C3.155,27.355,3,27.71,3,28.082v1.25C3,29.701,3.299,30,3.667,30H6v1.895V45h12.75
			H21V33.076V32h-1.274C18.223,32,17,30.777,17,29.274z"/>
		<path d="M51,35c1.205,0,2.586,0.015,4,0.06v-1.984V30h3.274C58.675,30,59,29.675,59,29.274v-1.357
			c0-0.403-0.168-0.788-0.463-1.063L39.542,9.192C39.389,9.05,39.194,8.979,39,8.979c-0.194,0-0.389,0.071-0.542,0.213
			L19.463,26.854C19.168,27.128,19,27.513,19,27.917v1.357C19,29.675,19.325,30,19.726,30H23v3.076V47h12.06
			c0.075-2.35,0.233-4.79,0.546-6.666c0.403-2.424,2.302-4.324,4.727-4.728C43.338,35.105,47.792,35,51,35z"/>
		<path d="M55.794,51.93c-0.847,0-1.025,0.976-1.025,1.795c0,1.633,0.508,1.853,1.005,1.853c0.706,0,1.063-0.552,1.063-1.641
			C56.838,52.138,56.242,51.93,55.794,51.93z"/>
		<path d="M46.225,46.307c-0.863,0-1.044,0.976-1.044,1.795c0,1.632,0.518,1.853,1.024,1.853c0.863,0,1.044-0.892,1.044-1.641
			C47.25,46.515,46.665,46.307,46.225,46.307z"/>
		<path d="M63.435,40.826c-0.195-1.173-1.087-2.065-2.261-2.261C57.783,38,52.13,38,51,38c-1.13,0-6.783,0-10.174,0.565
			c-1.173,0.196-2.065,1.088-2.26,2.261C38,44.217,38,49.87,38,51c0,1.13,0,6.783,0.565,10.174c0.195,1.173,1.087,2.065,2.26,2.261
			C44.217,64,49.87,64,51,64s6.783,0,10.174-0.565c1.174-0.196,2.066-1.088,2.261-2.261C64,57.783,64,52.13,64,51
			C64,47.607,64,44.217,63.435,40.826z M42.859,48.275c0-2.896,1.844-3.924,3.423-3.924c2.09,0,3.289,1.374,3.289,3.77
			c0,2.617-1.785,3.809-3.443,3.809C44.637,51.93,42.859,51.296,42.859,48.275z M49.293,58.002l-1.839-0.727l5.232-13.277
			l1.839,0.727L49.293,58.002z M55.698,57.553c-1.491,0-3.269-0.634-3.269-3.655c0-2.896,1.844-3.924,3.423-3.924
			c2.09,0,3.289,1.374,3.289,3.77C59.141,56.375,57.412,57.553,55.698,57.553z"/>
	</g>
</g>
</svg>
